Brackets.svg

<svg xmlns:rdf="http://www.w3.org/1999/02/22-rdf-syntax-ns#" xmlns="http://www.w3.org/2000/svg" version="1.1" xml:space="preserve" enable-background="new 0 0 128 128" y="0px" x="0px" xmlns:cc="http://creativecommons.org/ns#" xmlns:dc="http://purl.org/dc/elements/1.1/" viewBox="0 0 120 120"><linearGradient id="SVGID_1_" y2="113" gradientUnits="userSpaceOnUse" y1="3" gradientTransform="translate(-4,-3)" x2="64" x1="64"><stop stop-color="#29ABE2" offset="0"/><stop stop-color="#28A9E1" offset=".4757"/><stop stop-color="#23A2DC" offset=".6639"/><stop stop-color="#1A96D4" offset=".8012"/><stop stop-color="#0E85C9" offset=".913"/><stop stop-color="#0071BC" offset="1"/></linearGradient><path fill="url(#SVGID_1_)" d="m120 85.973c0 13.217-10.81 24.027-24.027 24.027h-71.946c-13.215 0-24.027-10.81-24.027-24.027v-61.946c0-13.215 10.812-24.027 24.027-24.027h71.945c13.218 0 24.028 10.812 24.028 24.027v61.946z"/><path fill="#115a91" d="m95.973 110h-71.946c-13.215 0-24.027-10.81-24.027-24.027v10c0 13.217 10.812 24.027 24.027 24.027h71.945c13.218 0 24.028-10.81 24.028-24.027v-10c0 13.217-10.81 24.027-24.027 24.027z"/><path fill="#fff" d="m106 83.966c0 6.646-5.39 12.034-12.034 12.034h-67.932c-6.646 0-12.034-5.388-12.034-12.034v-57.932c0-6.646 5.388-12.034 12.034-12.034h67.932c6.644 0 12.034 5.388 12.034 12.034v57.932z"/><path fill="#4d4d4d" d="m55 24v14h-17v32h17v15h-32v-61h32z"/><path fill="#4d4d4d" d="m95 24v61h-32v-15h18v-32h-18v-14h32z"/></svg>

<svg xmlns="http://www.w3.org/2000/svg" viewBox="0 0 120 120"><linearGradient id="a" y2="113" gradientUnits="userSpaceOnUse" y1="3" gradientTransform="translate(-4 -3)" x2="64" x1="64"><stop stop-color="#29ABE2" offset="0"/><stop stop-color="#28A9E1" offset=".476"/><stop stop-color="#23A2DC" offset=".664"/><stop stop-color="#1A96D4" offset=".801"/><stop stop-color="#0E85C9" offset=".913"/><stop stop-color="#0071BC" offset="1"/></linearGradient><path fill="url(#a)" d="M120 85.973C120 99.19 109.19 110 95.973 110H24.027C10.812 110 0 99.19 0 85.973V24.027C0 10.812 10.812 0 24.027 0h71.945C109.19 0 120 10.812 120 24.027v61.946z"/><path fill="#115a91" d="M95.973 110H24.027C10.812 110 0 99.19 0 85.973v10C0 109.19 10.812 120 24.027 120h71.945C109.19 120 120 109.19 120 95.973v-10C120 99.19 109.19 110 95.973 110z"/><path fill="#fff" d="M106 83.966C106 90.612 100.61 96 93.966 96H26.034C19.388 96 14 90.612 14 83.966V26.034C14 19.388 19.388 14 26.034 14h67.932C100.61 14 106 19.388 106 26.034v57.932z"/><path fill="#4d4d4d" d="M55 24v14H38v32h17v15H23V24h32zM95 24v61H63V70h18V38H63V24h32z"/></svg>
